www/images/delete-img.svg

<svg fill="none" height="75" viewBox="0 0 75 75" width="75" xmlns="http://www.w3.org/2000/svg"><path clip-rule="evenodd" d="m59.0681 11h-43.5112c-2.5173 0-4.5569 2.0396-4.5569 4.5569v43.5112c0 2.5173 2.0396 4.5569 4.5569 4.5569h43.5112c2.5173 0 4.5569-2.0396 4.5569-4.5569v-43.5112c0-2.5173-2.0396-4.5569-4.5569-4.5569zm1.617 47.6729c0 1.1117-.9004 2.0121-2.0121 2.0121h-42.7209c-.5352 0-1.045-.2113-1.424-.588-.3767-.379-.588-.8889-.588-1.4241v-7.9954l14.2516-12.0079c.4525-.379 1.1048-.402 1.5826-.0575l13.5237 9.7318c.4869.3469 1.1484.3147 1.5986-.078l15.7887-13.7466zm-23.6851-28.4911 5.1818-5.1818-5.1818-5.1818 3.8182-3.8182 5.1818 5.1818 5.1818-5.1818 3.8182 3.8182-5.1818 5.1818 5.1818 5.1818-3.8182 3.8182-5.1818-5.1818-5.1818 5.1818z" fill="#fff" fill-rule="evenodd"/></svg>

<svg width="75" height="75" viewBox="0 0 75 75" fill="none" xmlns="http://www.w3.org/2000/svg">
<path fill-rule="evenodd" clip-rule="evenodd" d="M59.0681 11H15.5569C13.0396 11 11 13.0396 11 15.5569V59.0681C11 61.5854 13.0396 63.625 15.5569 63.625H59.0681C61.5854 63.625 63.625 61.5854 63.625 59.0681V15.5569C63.625 13.0396 61.5854 11 59.0681 11ZM60.6851 58.6729C60.6851 59.7846 59.7847 60.685 58.673 60.685H15.9521C15.4169 60.685 14.9071 60.4737 14.5281 60.097C14.1514 59.718 13.9401 59.2081 13.9401 58.6729V50.6775L28.1917 38.6696C28.6442 38.2906 29.2965 38.2676 29.7743 38.6121L43.298 48.3439C43.7849 48.6908 44.4464 48.6586 44.8966 48.2659L60.6853 34.5193L60.6851 58.6729ZM37 30.1818L42.1818 25L37 19.8182L40.8182 16L46 21.1818L51.1818 16L55 19.8182L49.8182 25L55 30.1818L51.1818 34L46 28.8182L40.8182 34L37 30.1818Z" fill="white"/>
</svg>
